X: 1
T: Schottisch fr\aan Norbotten
T: Sottiisi pohjanmaalta
T: Lana-Villes schottis
O: Sweden/Finland
N: The third part was added by Sp\aelimenninir.
Z: 1997 by John Chambers <jc:trillian.mit.edu>
M: C|
L: 1/8
%%slurgraces 1
K: Dm
A,2 \
| "Dm"{C}D2 DE F2 FG | A2 AB A2 A2 | d2 de "A7"f2 e2 | "Dm"d4 "(A)"A2 de | "Dm"f2 e2 d2 AB | "C7"c2 {d}cB "F"A2 FG |
y3\
| "Dm"A2 {B}AG F2 G2 | "A7"A6 de | "Dm"f2 e2 d2 AB | "C7"c2 {d}cB "F"A2 FG | "Dm"A2 {B}AG "A7"F2 E2 | "Dm"D6 :|
|: A2 \
| "Dm"A>F DF AF DF | A2 d2 "Gm"c2 B2 |1,3 "Dm"A>B AG F2 G2 | "A7"A6 :|2,4 "Dm"A>B AG "A7"F2 E2 | "Dm"D6 :|
|: de \
| "Dm"f2 e2 d2 AB | "C7"c2 {d}cB "F"A2 FG |1,3 "Dm"A>B AG F2 G2 | "A7"A6 :|2,4 "Dm"A>B AG "A7"F2 E2 | "Dm"D6 :|

%%sep 1 1 500
%%sep 1 1 500

